X: 1442
T: Frank Collins' Cadrill Tune
B: australian traditional tunes wiki
M:6/8
L:1/8
R: Jig
Q: 3/8=100
K:G
V:1 
d|:"G"dBG dBG|"C"cBc gfe|"G"dBG dBG|"D7"A2G A2d|"G"dBG dBG|"C"cBc gfe|"G"dBG dBG|"D7"A2G"G" G2z:|
|:"G"dgb "D7"afd|"G"dgg gaB|"C"cec "G"BdB|"D7"A2GA2d|"G"dgb "D7"afd|"G"dgg gaB|"C"cec "G"BdB|"D7"A2GG2B:|
% abcbook-tune_id 6342d53a33e8f1d5bf188ac8


% abcbook-boost 0
% abcbook-tablature 
% abcbook-transpose 
% abcbook-lastupdated 1665324365263
% abcbook-soundfonts 
% abcbook-repeats 1
% NFF Book 2015

